public/nero.svg

<svg width="71" height="20" viewBox="0 0 71 20" fill="none" xmlns="http://www.w3.org/2000/svg">
<g clip-path="url(#clip0_462_5339)">
<mask id="mask0_462_5339" style="mask-type:luminance" maskUnits="userSpaceOnUse" x="0" y="0" width="71" height="20">
<path d="M70.5 0H0.5V20H70.5V0Z" fill="white"/>
</mask>
<g mask="url(#mask0_462_5339)">
<path d="M6.75683 4.15074C6.75683 3.73391 7.10699 3.396 7.53895 3.396H11.4496C11.8816 3.396 12.2317 3.73391 12.2317 4.15074V13.2073C12.2317 13.6241 12.5819 13.9621 13.0138 13.9621H14.187C14.6189 13.9621 14.9691 13.6241 14.9691 13.2073V4.15074C14.9691 3.73391 15.3193 3.396 15.7513 3.396H16.9245C17.3564 3.396 17.7065 3.73391 17.7065 4.15074V13.5847C17.7065 14.0015 17.3564 14.3394 16.9245 14.3394H15.7513C15.3193 14.3394 14.9691 14.6773 14.9691 15.0941V15.8488C14.9691 16.2656 14.6189 16.6036 14.187 16.6036H10.2764C9.8444 16.6036 9.49425 16.2656 9.49425 15.8488V6.79224C9.49425 6.37541 9.14411 6.03751 8.71212 6.03751H7.53895C7.10699 6.03751 6.75683 6.37541 6.75683 6.79224V15.8488C6.75683 16.2656 6.40667 16.6036 5.97471 16.6036H4.80153C4.36958 16.6036 4.01941 16.2656 4.01941 15.8488V6.46206C4.01941 6.04523 4.36958 5.70732 4.80153 5.70732H5.97471C6.40667 5.70732 6.75683 5.36944 6.75683 4.95261V4.15074Z" fill="#B0B0B5"/>
<path d="M23.1816 4.15074C23.1816 3.73391 23.5318 3.396 23.9638 3.396H33.3493C33.7811 3.396 34.1314 3.73391 34.1314 4.15074V5.2828C34.1314 5.69963 33.7811 6.03751 33.3493 6.03751H23.9638C23.5318 6.03751 23.1816 6.37541 23.1816 6.79224V7.92429C23.1816 8.34111 23.5318 8.67903 23.9638 8.67903H33.3493C33.7811 8.67903 34.1314 9.01688 34.1314 9.43377V10.5658C34.1314 10.9827 33.7811 11.3205 33.3493 11.3205H23.9638C23.5318 11.3205 23.1816 11.6584 23.1816 12.0753V13.2073C23.1816 13.6241 23.5318 13.9621 23.9638 13.9621H33.3493C33.7811 13.9621 34.1314 14.2999 34.1314 14.7167V15.8488C34.1314 16.2656 33.7811 16.6036 33.3493 16.6036H23.9638C23.5318 16.6036 23.1816 16.2656 23.1816 15.8488V15.0941C23.1816 14.6773 22.8315 14.3394 22.3996 14.3394H21.2263C20.7944 14.3394 20.4442 14.0015 20.4442 13.5847V6.41489C20.4442 5.99806 20.7944 5.66015 21.2263 5.66015H22.3996C22.8315 5.66015 23.1816 5.32227 23.1816 4.90544V4.15074Z" fill="#B0B0B5"/>
<path fill-rule="evenodd" clip-rule="evenodd" d="M40.3882 3.396C39.9563 3.396 39.606 3.73391 39.606 4.15074V4.90544C39.606 5.32227 39.256 5.66015 38.8239 5.66015H37.6508C37.2189 5.66015 36.8686 5.99806 36.8686 6.41489V15.8488C36.8686 16.2656 37.2189 16.6036 37.6508 16.6036H38.8239C39.256 16.6036 39.606 16.2656 39.606 15.8488V14.9055C39.606 14.4886 39.9563 14.1507 40.3882 14.1507H41.5616C41.9933 14.1507 42.3437 14.4886 42.3437 14.9055V15.8488C42.3437 16.2656 42.6937 16.6036 43.1258 16.6036H49.7736C50.2057 16.6036 50.5557 16.2656 50.5557 15.8488V14.7167C50.5557 14.2999 50.2057 13.9621 49.7736 13.9621H43.3211C42.8892 13.9621 42.5389 13.6241 42.5389 13.2073V12.0753C42.5389 11.6584 42.8892 11.3205 43.3211 11.3205H47.0362C47.4684 11.3205 47.8184 10.9827 47.8184 10.5658V9.52807C47.8184 9.11126 48.1687 8.77333 48.6005 8.77333H49.7736C50.2057 8.77333 50.5557 8.43548 50.5557 8.01866V6.41489C50.5557 5.99806 50.2057 5.66015 49.7736 5.66015H48.6005C48.1687 5.66015 47.8184 5.32227 47.8184 4.90544V4.15074C47.8184 3.73391 47.4684 3.396 47.0362 3.396H40.3882ZM39.606 10.3771C39.606 10.794 39.9563 11.1318 40.3882 11.1318H41.5616C41.9933 11.1318 42.3437 10.794 42.3437 10.3771V9.43377C42.3437 9.01688 42.6937 8.67903 43.1258 8.67903H47.0362C47.4684 8.67903 47.8184 8.34111 47.8184 7.92429V6.79224C47.8184 6.37541 47.4684 6.03751 47.0362 6.03751H40.3882C39.9563 6.03751 39.606 6.37541 39.606 6.79224V10.3771Z" fill="#B0B0B5"/>
<path fill-rule="evenodd" clip-rule="evenodd" d="M56.8129 3.396C56.3808 3.396 56.0308 3.73391 56.0308 4.15074V4.90544C56.0308 5.32227 55.6805 5.66015 55.2486 5.66015H54.0756C53.6434 5.66015 53.2934 5.99806 53.2934 6.41489V13.5847C53.2934 14.0015 53.6434 14.3394 54.0756 14.3394H55.2486C55.6805 14.3394 56.0308 14.6773 56.0308 15.0941V15.8488C56.0308 16.2656 56.3808 16.6036 56.8129 16.6036H63.461C63.8928 16.6036 64.2432 16.2656 64.2432 15.8488V15.0941C64.2432 14.6773 64.5932 14.3394 65.0253 14.3394H66.1984C66.6302 14.3394 66.9805 14.0015 66.9805 13.5847V6.41489C66.9805 5.99806 66.6302 5.66015 66.1984 5.66015H65.0253C64.5932 5.66015 64.2432 5.32227 64.2432 4.90544V4.15074C64.2432 3.73391 63.8928 3.396 63.461 3.396H56.8129ZM64.2432 6.79224C64.2432 6.37541 63.8928 6.03751 63.461 6.03751H56.8129C56.3808 6.03751 56.0308 6.37541 56.0308 6.79224V13.2073C56.0308 13.6241 56.3808 13.9621 56.8129 13.9621H63.461C63.8928 13.9621 64.2432 13.6241 64.2432 13.2073V6.79224Z" fill="#B0B0B5"/>
<path fill-rule="evenodd" clip-rule="evenodd" d="M4.80168 0H66.1983C68.5742 0 70.5 1.85844 70.5 4.15096V15.849C70.5 18.1416 68.5742 20 66.1983 20H4.80168C2.42592 20 0.5 18.1416 0.5 15.849V4.15096C0.5 1.85844 2.42592 0 4.80168 0ZM4.80168 1.88679C3.50581 1.88679 2.45531 2.90049 2.45531 4.15096V15.849C2.45531 17.0995 3.50581 18.1132 4.80168 18.1132H66.1983C67.4942 18.1132 68.5448 17.0995 68.5448 15.849V4.15096C68.5448 2.90049 67.4942 1.88679 66.1983 1.88679H4.80168Z" fill="#B0B0B5"/>
</g>
</g>
<defs>
<clipPath id="clip0_462_5339">
<rect width="70" height="20" fill="white" transform="translate(0.5)"/>
</clipPath>
</defs>
</svg>

<svg xmlns="http://www.w3.org/2000/svg" width="71" height="20" fill="none"><g clip-path="url(#a)"><mask id="b" width="71" height="20" x="0" y="0" maskUnits="userSpaceOnUse" style="mask-type:luminance"><path fill="#fff" d="M70.5 0H.5v20h70z"/></mask><g fill="#B0B0B5" mask="url(#b)"><path d="M6.757 4.15c0-.416.35-.754.782-.754h3.91c.433 0 .783.338.783.755v9.056c0 .417.35.755.782.755h1.173a.77.77 0 0 0 .782-.755V4.151c0-.417.35-.755.782-.755h1.173c.432 0 .782.338.782.755v9.434c0 .416-.35.754-.782.754h-1.173a.77.77 0 0 0-.782.755v.755c0 .417-.35.755-.782.755h-3.91a.77.77 0 0 1-.783-.755V6.792a.77.77 0 0 0-.782-.754H7.54a.77.77 0 0 0-.782.754v9.057c0 .417-.35.755-.782.755H4.802a.77.77 0 0 1-.783-.755V6.462c0-.417.35-.755.783-.755h1.173a.77.77 0 0 0 .782-.754zm16.425 0c0-.416.35-.754.782-.754h9.385c.432 0 .782.338.782.755v1.132c0 .417-.35.755-.782.755h-9.385a.77.77 0 0 0-.782.754v1.132c0 .417.35.755.782.755h9.385c.432 0 .782.338.782.755v1.132c0 .417-.35.754-.782.754h-9.385a.77.77 0 0 0-.782.755v1.132c0 .417.35.755.782.755h9.385c.432 0 .782.338.782.755v1.132c0 .417-.35.755-.782.755h-9.385a.77.77 0 0 1-.782-.755v-.755a.77.77 0 0 0-.782-.755h-1.174a.77.77 0 0 1-.782-.754v-7.17c0-.417.35-.755.782-.755H22.4a.77.77 0 0 0 .782-.755z"/><path fill-rule="evenodd" d="M40.388 3.396a.77.77 0 0 0-.782.755v.754c0 .417-.35.755-.782.755H37.65a.77.77 0 0 0-.782.755v9.434c0 .417.35.755.782.755h1.173a.77.77 0 0 0 .782-.755v-.944c0-.416.35-.754.782-.754h1.174a.77.77 0 0 1 .782.755v.943c0 .417.35.755.782.755h6.648a.77.77 0 0 0 .782-.755v-1.132a.77.77 0 0 0-.782-.755H43.32a.77.77 0 0 1-.782-.755v-1.132c0-.417.35-.755.782-.755h3.715a.77.77 0 0 0 .782-.754V9.528c0-.417.35-.755.782-.755h1.174a.77.77 0 0 0 .782-.754V6.415a.77.77 0 0 0-.782-.755H48.6a.77.77 0 0 1-.782-.755v-.754a.77.77 0 0 0-.782-.755zm-.782 6.981c0 .417.35.755.782.755h1.174a.77.77 0 0 0 .782-.755v-.943c0-.417.35-.755.782-.755h3.91a.77.77 0 0 0 .782-.755V6.792a.77.77 0 0 0-.782-.754h-6.648a.77.77 0 0 0-.782.754zm17.207-6.981a.77.77 0 0 0-.782.755v.754c0 .417-.35.755-.782.755h-1.173a.77.77 0 0 0-.783.755v7.17c0 .416.35.754.783.754h1.173a.77.77 0 0 1 .782.755v.755c0 .417.35.755.782.755h6.648a.77.77 0 0 0 .782-.755v-.755c0-.417.35-.755.782-.755h1.173a.77.77 0 0 0 .783-.754v-7.17a.77.77 0 0 0-.783-.755h-1.173a.77.77 0 0 1-.782-.755v-.754a.77.77 0 0 0-.782-.755zm7.43 3.396a.77.77 0 0 0-.782-.754h-6.648a.77.77 0 0 0-.782.754v6.415c0 .417.35.755.782.755h6.648a.77.77 0 0 0 .782-.755z" clip-rule="evenodd"/><path fill-rule="evenodd" d="M4.802 0h61.396C68.574 0 70.5 1.858 70.5 4.151v11.698c0 2.293-1.926 4.151-4.302 4.151H4.802C2.426 20 .5 18.142.5 15.849V4.151C.5 1.858 2.426 0 4.802 0m0 1.887c-1.296 0-2.347 1.013-2.347 2.264v11.698c0 1.25 1.05 2.264 2.347 2.264h61.396c1.296 0 2.347-1.014 2.347-2.264V4.151c0-1.25-1.05-2.264-2.347-2.264z" clip-rule="evenodd"/></g></g><defs><clipPath id="a"><path fill="#fff" d="M.5 0h70v20H.5z"/></clipPath></defs></svg>
